svgs/sharp-solid/person-chalkboard.svg

<svg xmlns="http://www.w3.org/2000/svg" viewBox="0 0 640 512"><!--! Font Awesome Pro 6.6.0 by @fontawesome - https://fontawesome.com License - https://fontawesome.com/license (Commercial License) Copyright 2024 Fonticons, Inc. --><path d="M192 96a48 48 0 1 0 0-96 48 48 0 1 0 0 96zm-51.1 32l-18.1 0-9.3 15.5L48.9 251.1 32.4 278.5l54.9 33L103.7 284 120 256.9 120 480l0 32 64 0 0-32 0-128 16 0 0 128 0 32 64 0 0-32 0-288 56 0 64 0 16 0 32 0 0-64-32 0-16 0 0-64 192 0 0 192-192 0 0-32-64 0 0 32 0 64 64 0 192 0 64 0 0-64 0-192 0-64L576 0 384 0 320 0l0 64 0 64-76.9 0-102.2 0z"/></svg>

<svg xmlns="http://www.w3.org/2000/svg" viewBox="0 0 640 512"><!--! Font Awesome Pro 6.4.2 by @fontawesome - https://fontawesome.com License - https://fontawesome.com/license (Commercial License) Copyright 2023 Fonticons, Inc. --><path d="M192 96a48 48 0 1 0 0-96 48 48 0 1 0 0 96zm-51.1 32H122.8l-9.3 15.5L48.9 251.1 32.4 278.5l54.9 33L103.7 284 120 256.9V480v32h64V480 352h16V480v32h64V480 192h56 64 16 32V128H400 384V64H576V256H384V224H320v32 64h64H576h64V256 64 0H576 384 320V64v64H243.1 140.9z"/></svg>
